X: 9
T:Yellow Stockings (#189)
M:9/8
L:1/8
S:O'Farrell's National Irish Music 1797
K:G
E|:G2 B GEE GEE|G2 B GEE FED|G2 B GEE GEE|FGA ABG FED:|
|:G2 c BGd BGd|G2 c BGd cBA|G2 c BGd BGd|ecA ABG FED:|
|:B/2c/2BA GEE GEE|BdB GEE FED|B/2c/2BA GEE GEE|FGA ABG FED:||

